X:1512
T:Black Joke. WM.029
M:6/8
L:1/8
Q:120
S:Wm.Mittell's MS,New Romney,Kent,1799
R:Jig
O:England
A:Kent
Z:vmp.Chris Partington
K:G
D|DG2GFG|ABA AGA|BcB BAG|ABA AGF|G3E2D|DEFG3:|!
|:B2cd2d|efgd2c|Bcd ded|efgd3|c2aB2g|!ABA AGA|
BcB BAG|ABA AGF|G3E2D|DEFG3:|]
